lib/flags/m/HRV.svg

<svg xmlns="http://www.w3.org/2000/svg" fill="none" viewBox="0 0 20 15"><mask id="HRV_svg__a" width="20" height="15" x="0" y="0" mask-type="alpha" maskUnits="userSpaceOnUse"><path fill="#fff" d="M0 0H20V15H0z"/></mask><g mask="url(#HRV_svg__a)"><path fill="#F7FCFF" fill-rule="evenodd" d="M0 0V15H20V0H0Z" clip-rule="evenodd"/><mask id="HRV_svg__b" width="20" height="15" x="0" y="0" mask-type="alpha" maskUnits="userSpaceOnUse"><path fill="#fff" fill-rule="evenodd" d="M0 0V15H20V0H0Z" clip-rule="evenodd"/></mask><g mask="url(#HRV_svg__b)"><path fill="#E31D1C" fill-rule="evenodd" d="M0 0V5H20V0H0Z" clip-rule="evenodd"/><path fill="#3D58DB" fill-rule="evenodd" d="M0 10V15H20V10H0Z" clip-rule="evenodd"/><path fill="#E31D1C" d="M6.298 3.998H13.423V6.498H6.298z"/><path fill="#F7FCFF" stroke="#E31D1C" stroke-width=".703" d="M6.6577 5.59998H12.988C12.9987 6.08058 13.0019 6.91895 13.0019 7.72604C13.0018 8.24724 13.0005 8.74901 12.9991 9.12054L12.9972 9.56614L12.9966 9.68961L12.9965 9.70738L12.9962 9.70943C12.9934 9.72607 12.9887 9.75225 12.9815 9.7866C12.9672 9.85541 12.9429 9.95641 12.9044 10.0788C12.827 10.3246 12.6939 10.6506 12.4721 10.9744C12.038 11.6081 11.25 12.2596 9.78116 12.2596C8.31434 12.2596 7.56441 11.609 7.16524 10.9814C6.96027 10.6591 6.84322 10.3343 6.77771 10.0887C6.74511 9.96643 6.72574 9.86554 6.71466 9.7968C6.70913 9.76248 6.70569 9.73633 6.70371 9.71973L6.70252 9.70898L6.70219 9.68143L6.7007 9.55874L6.69539 9.11589C6.691 8.74659 6.68515 8.24745 6.67929 7.72805C6.67034 6.93442 6.66142 6.09593 6.6577 5.59998ZM6.70148 9.69918C6.70147 9.699 6.70147 9.69899 6.70148 9.69915L6.70148 9.69918Z"/><mask id="HRV_svg__c" width="8" height="8" x="6" y="5" mask-type="alpha" maskUnits="userSpaceOnUse"><path fill="#fff" stroke="#fff" stroke-width=".703" d="M6.6577 5.59998H12.988C12.9987 6.08058 13.0019 6.91895 13.0019 7.72604C13.0018 8.24724 13.0005 8.74901 12.9991 9.12054L12.9972 9.56614L12.9966 9.68961L12.9965 9.70738L12.9962 9.70943C12.9934 9.72607 12.9887 9.75225 12.9815 9.7866C12.9672 9.85541 12.9429 9.95641 12.9044 10.0788C12.827 10.3246 12.6939 10.6506 12.4721 10.9744C12.038 11.6081 11.25 12.2596 9.78116 12.2596C8.31434 12.2596 7.56441 11.609 7.16524 10.9814C6.96027 10.6591 6.84322 10.3343 6.77771 10.0887C6.74511 9.96643 6.72574 9.86554 6.71466 9.7968C6.70913 9.76248 6.70569 9.73633 6.70371 9.71973L6.70252 9.70898L6.70219 9.68143L6.7007 9.55874L6.69539 9.11589C6.691 8.74659 6.68515 8.24745 6.67929 7.72805C6.67034 6.93442 6.66142 6.09593 6.6577 5.59998ZM6.70148 9.69918C6.70147 9.699 6.70147 9.69899 6.70148 9.69915L6.70148 9.69918Z"/></mask><g mask="url(#HRV_svg__c)"><path fill="#F50100" fill-rule="evenodd" d="M6.56152 5.65002H7.87988V6.98871H6.56152V5.65002ZM9.19824 6.98871H7.87988V8.3274H6.56152V9.66609L7.87988 9.66609V11.0048H6.56152V12.3435H7.87988V11.0048H9.19824V12.3435H10.5166V11.0048H11.835V12.3435H13.1533V11.0048H11.835V9.66609L13.1533 9.66609V8.3274H11.835V6.98871H13.1533V5.65002H11.835V6.98871H10.5166V5.65002H9.19824V6.98871ZM9.19824 8.3274V6.98871H10.5166V8.3274H9.19824ZM9.19824 9.66609V8.3274H7.87988V9.66609H9.19824ZM10.5166 9.66609V11.0048H9.19824V9.66609H10.5166ZM10.5166 9.66609V8.3274H11.835V9.66609H10.5166Z" clip-rule="evenodd"/></g><path fill="#56C6F5" fill-rule="evenodd" stroke="#fff" stroke-width=".5" d="M6.53316 5.10165C6.53316 5.10165 6.94093 4.88384 7.28873 4.77159C7.63653 4.65935 7.91143 4.59802 7.91143 4.59802L7.39397 2.69046L6.35752 2.30322L5.77051 3.27079L6.53316 5.10165Z" clip-rule="evenodd"/><path fill="#fff" d="M6.36316 4.05668L6.48226 3.99928C6.60524 4.26235 6.76736 4.34361 6.98957 4.26068C7.21655 4.17597 7.3091 4.01578 7.27644 3.76184L7.40717 3.74451C7.4477 4.05974 7.32058 4.27977 7.03505 4.38633C6.74475 4.49467 6.5138 4.37891 6.36316 4.05668Z"/><path fill="#FECA00" fill-rule="evenodd" d="M6.64518 3.46368L6.53132 3.53265C6.50613 3.54791 6.4748 3.52598 6.48053 3.49708L6.5064 3.3665L6.38973 3.30238C6.36392 3.28819 6.36725 3.25009 6.39514 3.2406L6.52116 3.19772L6.51836 3.06462C6.51774 3.03517 6.5524 3.01901 6.57456 3.03842L6.67472 3.12611L6.78858 3.05714C6.81377 3.04188 6.8451 3.06381 6.83938 3.09271L6.8135 3.22329L6.93017 3.28741C6.95598 3.3016 6.95265 3.3397 6.92476 3.34919L6.79874 3.39208L6.80154 3.52517C6.80216 3.55462 6.7675 3.57078 6.74534 3.55138L6.64518 3.46368Z" clip-rule="evenodd"/><path fill="#56C6F5" fill-rule="evenodd" stroke="#fff" stroke-width=".5" d="M9.08801 4.42242C9.08801 4.42242 9.43576 4.39139 9.80116 4.39849C10.1666 4.40558 10.4757 4.40818 10.4757 4.40818L10.6541 2.52726L9.87144 1.82014L9.0014 2.54388L9.08801 4.42242Z" clip-rule="evenodd"/><path fill="#FECA00" fill-rule="evenodd" d="M9.84394 4.11551C10.1454 4.11551 10.1743 3.78991 10.1743 3.56811 10.0972 3.44509 10.1127 3.35706 9.86564 3.35706 9.61855 3.35706 9.59034 3.43172 9.51825 3.56811 9.51825 3.78991 9.54248 4.11551 9.84394 4.11551zM10.1831 3.19559C10.4846 3.19559 10.5135 2.86999 10.5135 2.64819 10.4364 2.52517 10.4519 2.43713 10.2048 2.43713 9.95772 2.43713 9.92951 2.5118 9.85742 2.64819 9.85742 2.86999 9.88165 3.19559 10.1831 3.19559zM9.52393 3.19559C9.8254 3.19559 9.85427 2.86999 9.85427 2.64819 9.77719 2.52517 9.79272 2.43713 9.54563 2.43713 9.29854 2.43713 9.27034 2.5118 9.19824 2.64819 9.19824 2.86999 9.22247 3.19559 9.52393 3.19559z" clip-rule="evenodd"/><path fill="#2E42A5" stroke="#fff" stroke-width=".5" d="M7.6429 4.62658L7.71493 4.87127L7.9581 4.79434L7.95811 4.79434L7.95813 4.79434L7.95824 4.7943L7.95893 4.79409L7.96196 4.79313L7.97435 4.78928L8.02144 4.77495C8.0617 4.76287 8.11784 4.74641 8.1812 4.72897C8.31143 4.69312 8.45953 4.65665 8.56358 4.64219C8.67593 4.62658 8.81756 4.61499 8.93448 4.60725C8.99222 4.60343 9.04259 4.60063 9.07846 4.5988L9.12034 4.59676L9.13134 4.59627L9.13406 4.59616L9.13469 4.59613L9.13481 4.59612H9.13481L9.13482 4.59612L9.13483 4.59612L9.3961 4.58539L9.37362 4.32485L9.21595 2.49709L9.206 2.38177L9.11163 2.31475L8.25993 1.70987L8.08457 1.58533L7.93524 1.74013L7.16119 2.54258L7.06024 2.64724L7.1013 2.78674L7.6429 4.62658Z"/><mask id="HRV_svg__d" width="4" height="5" x="6" y="1" mask-type="alpha" maskUnits="userSpaceOnUse"><path fill="#fff" stroke="#fff" stroke-width=".5" d="M7.6429 4.62658L7.71493 4.87127L7.9581 4.79434L7.95811 4.79434L7.95813 4.79434L7.95824 4.7943L7.95893 4.79409L7.96196 4.79313L7.97435 4.78928L8.02144 4.77495C8.0617 4.76287 8.11784 4.74641 8.1812 4.72897C8.31143 4.69312 8.45953 4.65665 8.56358 4.64219C8.67593 4.62658 8.81756 4.61499 8.93448 4.60725C8.99222 4.60343 9.04259 4.60063 9.07846 4.5988L9.12034 4.59676L9.13134 4.59627L9.13406 4.59616L9.13469 4.59613L9.13481 4.59612H9.13481L9.13482 4.59612L9.13483 4.59612L9.3961 4.58539L9.37362 4.32485L9.21595 2.49709L9.206 2.38177L9.11163 2.31475L8.25993 1.70987L8.08457 1.58533L7.93524 1.74013L7.16119 2.54258L7.06024 2.64724L7.1013 2.78674L7.6429 4.62658Z"/></mask><g fill="#C51918" mask="url(#HRV_svg__d)"><path d="M7.77277 4.14869 7.61621 3.77989C7.95247 3.6327 8.52049 3.54239 9.11822 3.50708L9.14119 3.90801C8.58552 3.94084 8.0599 4.02301 7.77277 4.14869zM7.50855 3.25651 7.35199 2.88771C7.68824 2.74053 8.411 2.62137 9.00873 2.58606L9.0317 2.98699C8.47603 3.01982 7.79568 3.13083 7.50855 3.25651z"/></g><path fill="#2E42A5" stroke="#fff" stroke-width=".5" d="M11.9884 4.62112L11.9204 4.87304L11.6716 4.79434L11.6716 4.79434L11.6716 4.79434L11.6715 4.7943L11.6708 4.79409L11.6678 4.79313L11.6554 4.78928L11.6083 4.77495C11.568 4.76287 11.5119 4.74641 11.4486 4.72897C11.3183 4.69312 11.1702 4.65665 11.0662 4.64219C10.9538 4.62658 10.8122 4.61499 10.6953 4.60725C10.6375 4.60343 10.5872 4.60063 10.5513 4.5988L10.5094 4.59676L10.4984 4.59627L10.4957 4.59616L10.4951 4.59613L10.4949 4.59612H10.4949L10.4949 4.59612L10.4949 4.59612L10.2337 4.58539L10.2561 4.32485L10.4138 2.49709L10.4237 2.38177L10.5181 2.31475L11.3698 1.70987L11.5501 1.58182L11.6992 1.74514L12.429 2.54456L12.5215 2.64584L12.4857 2.77825L11.9884 4.62112Z"/><mask id="HRV_svg__e" width="4" height="5" x="9" y="1" mask-type="alpha" maskUnits="userSpaceOnUse"><path fill="#fff" stroke="#fff" stroke-width=".5" d="M11.9884 4.62112L11.9204 4.87304L11.6716 4.79434L11.6716 4.79434L11.6716 4.79434L11.6715 4.7943L11.6708 4.79409L11.6678 4.79313L11.6554 4.78928L11.6083 4.77495C11.568 4.76287 11.5119 4.74641 11.4486 4.72897C11.3183 4.69312 11.1702 4.65665 11.0662 4.64219C10.9538 4.62658 10.8122 4.61499 10.6953 4.60725C10.6375 4.60343 10.5872 4.60063 10.5513 4.5988L10.5094 4.59676L10.4984 4.59627L10.4957 4.59616L10.4951 4.59613L10.4949 4.59612H10.4949L10.4949 4.59612L10.4949 4.59612L10.2337 4.58539L10.2561 4.32485L10.4138 2.49709L10.4237 2.38177L10.5181 2.31475L11.3698 1.70987L11.5501 1.58182L11.6992 1.74514L12.429 2.54456L12.5215 2.64584L12.4857 2.77825L11.9884 4.62112Z"/></mask><g fill-rule="evenodd" clip-rule="evenodd" mask="url(#HRV_svg__e)"><path fill="#FECA00" d="M11.4986 4.04156C11.4986 4.04156 11.6824 3.9393 11.7089 3.76687C11.7353 3.59444 12.0195 3.38207 11.8774 3.40735C11.7353 3.43262 11.8166 3.45237 11.6108 3.40735C11.4051 3.36233 11.1388 3.33255 11.1388 3.20606C11.1388 3.07957 11.2711 2.97917 11.1629 2.97917C11.0547 2.97917 10.8238 2.85945 10.8702 2.95096C10.9166 3.04247 10.7635 2.939 10.8401 3.12897C10.9166 3.31895 10.8238 3.51034 10.8702 3.5607C10.9166 3.61106 10.8401 3.85805 10.8401 3.85805C10.8401 3.85805 10.8682 3.94979 10.9173 3.81239C10.9665 3.67498 11.0741 3.57867 11.0203 3.69553C10.9665 3.81239 10.8979 4.09034 10.9591 4.04156C11.0203 3.99279 11.0811 3.8579 11.0811 3.81239C11.0811 3.76687 11.2356 3.58821 11.2356 3.72313C11.2356 3.85805 11.0903 3.96431 11.1629 3.96431C11.2356 3.96431 11.2763 3.99298 11.322 3.85805C11.3676 3.72313 11.4786 3.63387 11.5241 3.72313C11.5696 3.81239 11.5595 3.80762 11.4986 3.92459C11.4378 4.04156 11.4986 4.04156 11.4986 4.04156Z"/><path fill="#C51918" d="M11.067 3.04154L10.9986 2.9271C11.1214 2.85146 11.2341 2.83131 11.333 2.87348C11.378 2.89265 11.412 2.91449 11.5003 2.97665L11.5119 2.98476C11.6039 3.0493 11.6526 3.07558 11.6826 3.07558V3.20945C11.6139 3.20945 11.5546 3.17741 11.4369 3.09491L11.4252 3.08669C11.3457 3.03075 11.315 3.01097 11.282 2.99692C11.2273 2.9736 11.1568 2.98619 11.067 3.04154ZM10.8506 3.91463C10.8894 3.91463 10.9209 3.88354 10.9209 3.84518C10.9209 3.80683 10.8894 3.77574 10.8506 3.77574C10.8118 3.77574 10.7803 3.80683 10.7803 3.84518C10.7803 3.88354 10.8118 3.91463 10.8506 3.91463ZM11.0527 3.97905C11.0527 4.01741 11.0213 4.0485 10.9824 4.0485C10.9436 4.0485 10.9121 4.01741 10.9121 3.97905C10.9121 3.9407 10.9436 3.90961 10.9824 3.90961C11.0213 3.90961 11.0527 3.9407 11.0527 3.97905ZM11.2192 4.04333C11.2581 4.04333 11.2896 4.01224 11.2896 3.97389C11.2896 3.93554 11.2581 3.90444 11.2192 3.90444C11.1804 3.90444 11.1489 3.93554 11.1489 3.97389C11.1489 4.01224 11.1804 4.04333 11.2192 4.04333ZM11.5098 4.08503C11.5098 4.12338 11.4784 4.15447 11.4395 4.15447C11.4007 4.15447 11.3692 4.12338 11.3692 4.08503C11.3692 4.04667 11.4007 4.01558 11.4395 4.01558C11.4784 4.01558 11.5098 4.04667 11.5098 4.08503Z"/></g><path fill="#56C6F5" stroke="#fff" stroke-width=".5" d="M13.4313 5.15356L13.3233 5.40229L13.0842 5.27456L13.0842 5.27456L13.0842 5.27455L13.0842 5.27454L13.0841 5.27451L13.0835 5.27417L13.0805 5.2726L13.0681 5.26607C13.057 5.26029 13.0405 5.25177 13.0196 5.24114C12.9777 5.21986 12.9181 5.19025 12.8481 5.15726C12.7063 5.09047 12.5285 5.01317 12.3696 4.96188C12.2012 4.90752 12.0501 4.86541 11.9413 4.83694C11.887 4.82272 11.8434 4.81195 11.8136 4.8048L11.7798 4.79681L11.7715 4.7949L11.7696 4.79447L11.7692 4.79439L11.7692 4.79438L11.7692 4.79438L11.7692 4.79438L11.7692 4.79438L11.5108 4.73673L11.5832 4.48203L12.112 2.6221L12.1465 2.50051L12.2649 2.45627L13.3014 2.06903L13.4953 1.9966L13.6026 2.17355L14.1896 3.14111L14.2567 3.25168L14.2052 3.37032L13.4313 5.15356Z"/><mask id="HRV_svg__f" width="4" height="5" x="11" y="1" mask-type="alpha" maskUnits="userSpaceOnUse"><path fill="#fff" stroke="#fff" stroke-width=".5" d="M13.4313 5.15356L13.3233 5.40229L13.0842 5.27456L13.0842 5.27456L13.0842 5.27455L13.0842 5.27454L13.0841 5.27451L13.0835 5.27417L13.0805 5.2726L13.0681 5.26607C13.057 5.26029 13.0405 5.25177 13.0196 5.24114C12.9777 5.21986 12.9181 5.19025 12.8481 5.15726C12.7063 5.09047 12.5285 5.01317 12.3696 4.96188C12.2012 4.90752 12.0501 4.86541 11.9413 4.83694C11.887 4.82272 11.8434 4.81195 11.8136 4.8048L11.7798 4.79681L11.7715 4.7949L11.7696 4.79447L11.7692 4.79439L11.7692 4.79438L11.7692 4.79438L11.7692 4.79438L11.7692 4.79438L11.5108 4.73673L11.5832 4.48203L12.112 2.6221L12.1465 2.50051L12.2649 2.45627L13.3014 2.06903L13.4953 1.9966L13.6026 2.17355L14.1896 3.14111L14.2567 3.25168L14.2052 3.37032L13.4313 5.15356Z"/></mask><g mask="url(#HRV_svg__f)"><path fill="#FECA00" fill-rule="evenodd" d="M13.2047 3.18066L13.1159 3.27991C13.0963 3.30187 13.0599 3.29005 13.057 3.26075L13.0435 3.1283L12.9132 3.1011C12.8844 3.09507 12.8764 3.05767 12.9003 3.04044L13.0083 2.96258L12.9667 2.83612C12.9575 2.80814 12.9859 2.78255 13.0128 2.79463L13.1342 2.84921L13.2229 2.74996C13.2426 2.728 13.2789 2.73982 13.2819 2.76912L13.2953 2.90157L13.4257 2.92878C13.4545 2.9348 13.4624 2.9722 13.4385 2.98943L13.3306 3.06729L13.3722 3.19375C13.3814 3.22173 13.3529 3.24732 13.3261 3.23524L13.2047 3.18066Z" clip-rule="evenodd"/><path fill="#E31D1C" d="M11.8719 4.05473L12.0047 3.5365C12.5927 3.69181 13.2056 3.89086 13.6553 4.08335L13.4504 4.57677C13.0256 4.39493 12.4365 4.20387 11.8719 4.05473Z"/><path fill="#fff" d="M12.0519 3.57621 12.0832 3.44617C12.6469 3.58605 13.2461 3.80926 13.6814 4.01714L13.6253 4.13829C13.1983 3.93439 12.6075 3.71407 12.0519 3.57621zM11.8849 4.11039 11.9162 3.98035C12.4799 4.12023 13.0009 4.31004 13.4363 4.51793L13.3802 4.63907C12.9531 4.43518 12.4404 4.24825 11.8849 4.11039z"/><path fill="#272727" d="M12.1393 3.85944L12.2601 3.80493C12.3109 3.92388 12.3736 3.95008 12.4786 3.8991C12.7264 3.77869 13.3411 3.94696 13.3411 4.17385C13.3411 4.26237 13.2898 4.31604 13.2115 4.31293C13.1673 4.31118 13.1201 4.29371 13.0509 4.25948C13.0425 4.25533 13.037 4.25255 13.0233 4.24563C12.9468 4.20659 12.941 4.20374 12.9206 4.1964L12.9642 4.06849C12.9925 4.07866 12.9969 4.08084 13.0819 4.1242C13.095 4.13087 13.1002 4.13345 13.108 4.13733C13.1611 4.16356 13.1965 4.17669 13.2166 4.17749C13.2185 4.17756 13.2093 4.18713 13.2093 4.17385C13.2093 4.07402 12.709 3.93707 12.5349 4.02165C12.3613 4.10599 12.2194 4.04674 12.1393 3.85944Z"/></g></g></g></svg>

<svg xmlns="http://www.w3.org/2000/svg" fill="none" viewBox="0 0 20 15"><g mask="url(#HRV_svg__HR_-_Croatia_(Hrvatska)"><path fill="#F7FCFF" fill-rule="evenodd" d="M0 0v15h20V0H0z" clip-rule="evenodd"/><g mask="url(#HRV_svg__HR_-_Croatia_(Hrvatska)"><path fill="#E31D1C" fill-rule="evenodd" d="M0 0v5h20V0H0z" clip-rule="evenodd"/><path fill="#3D58DB" fill-rule="evenodd" d="M0 10v5h20v-5H0z" clip-rule="evenodd"/><path fill="#E31D1C" d="M6.298 3.998h7.125v2.5H6.298z"/><path fill="#F7FCFF" stroke="#E31D1C" stroke-width=".703" d="M6.658 5.6h6.33c.01.48.014 1.319.014 2.126 0 .521-.002 1.023-.003 1.394l-.002.446v.144a3.071 3.071 0 01-.092.37 3.428 3.428 0 01-.433.895c-.434.634-1.222 1.286-2.69 1.286s-2.218-.651-2.617-1.279a3.23 3.23 0 01-.461-1.261l-.002-.011v-.03l-.001-.122-.006-.443A2267.225 2267.225 0 016.658 5.6zM6.7 9.7c0-.001 0-.001 0 0h0z"/><g mask="url(#HRV_svg__HR_-_Croatia_(Hrvatska)"><path fill="#F50100" fill-rule="evenodd" d="M6.562 5.65H7.88v1.339H6.562v-1.34zm2.636 1.339H7.88v1.338H6.562v1.339H7.88v1.339H6.562v1.338H7.88v-1.338h1.318v1.338h1.319v-1.338h1.318v1.338h1.318v-1.338h-1.318V9.666h1.318V8.327h-1.318V6.99h1.318V5.65h-1.318v1.34h-1.318V5.65H9.198v1.34zm0 1.338V6.99h1.319v1.338H9.198zm0 1.339V8.327H7.88v1.339h1.318zm1.319 0v1.339H9.198V9.666h1.319zm0 0V8.327h1.318v1.339h-1.318z" clip-rule="evenodd"/></g><path fill="#56C6F5" fill-rule="evenodd" stroke="#fff" stroke-width=".5" d="M6.533 5.102s.408-.218.756-.33c.348-.113.622-.174.622-.174L7.394 2.69l-1.036-.387-.587.968.762 1.83z" clip-rule="evenodd"/><path fill="#fff" d="M6.363 4.057l.12-.058c.122.263.284.345.507.262.227-.085.32-.245.286-.5l.131-.016c.04.315-.086.535-.372.641-.29.109-.521-.007-.672-.33z"/><path fill="#FECA00" fill-rule="evenodd" d="M6.645 3.464l-.114.069a.034.034 0 01-.05-.036l.025-.13-.116-.065a.034.034 0 01.005-.061l.126-.043-.003-.133c0-.03.034-.046.057-.027l.1.088.114-.069a.034.034 0 01.05.036l-.025.13.116.064a.034.034 0 01-.005.062l-.126.043.003.133c0 .03-.034.046-.057.026l-.1-.087z" clip-rule="evenodd"/><path fill="#56C6F5" fill-rule="evenodd" stroke="#fff" stroke-width=".5" d="M9.088 4.422s.348-.03.713-.024c.365.008.675.01.675.01l.178-1.88-.783-.708-.87.724.087 1.878z" clip-rule="evenodd"/><path fill="#FECA00" fill-rule="evenodd" d="M9.844 4.116c.301 0 .33-.326.33-.548-.077-.123-.061-.21-.308-.21-.248 0-.276.074-.348.21 0 .222.024.548.326.548zm.339-.92c.302 0 .33-.326.33-.548-.077-.123-.061-.21-.308-.21s-.275.074-.348.21c0 .222.025.548.326.548zm-.659 0c.301 0 .33-.326.33-.548-.077-.123-.061-.21-.308-.21s-.276.074-.348.21c0 .222.024.548.326.548z" clip-rule="evenodd"/><path fill="#2E42A5" stroke="#fff" stroke-width=".5" d="M7.643 4.627l.072.244.243-.077h.004l.012-.005.047-.014a7.37 7.37 0 01.16-.046c.13-.036.279-.072.383-.087a5.6 5.6 0 01.514-.043l.042-.002h.014l.262-.012-.022-.26-.158-1.828-.01-.115-.094-.067-.852-.605-.175-.125-.15.155-.774.803-.1.104.04.14.542 1.84z"/><g fill="#C51918" mask="url(#HRV_svg__HR_-_Croatia_(Hrvatska)"><path d="M7.773 4.149l-.157-.37c.336-.146.904-.237 1.502-.272l.023.401c-.555.033-1.081.115-1.368.24zm-.264-.892l-.157-.37c.336-.146 1.059-.266 1.657-.3l.023.4c-.556.033-1.236.144-1.523.27z"/></g><path fill="#2E42A5" stroke="#fff" stroke-width=".5" d="M11.988 4.621l-.068.252-.248-.079h0-.004l-.013-.005-.047-.014a7.505 7.505 0 00-.16-.046 3.4 3.4 0 00-.382-.087 5.604 5.604 0 00-.515-.043l-.042-.002h-.013 0-.001 0l-.261-.012.022-.26.158-1.828.01-.115.094-.067.852-.605.18-.128.15.163.729.8.092.1-.035.133-.498 1.843z"/><g fill-rule="evenodd" clip-rule="evenodd" mask="url(#HRV_svg__HR_-_Croatia_(Hrvatska)"><path fill="#FECA00" d="M11.499 4.042s.183-.103.21-.275c.026-.173.31-.385.168-.36-.142.026-.06.045-.266 0-.206-.045-.472-.074-.472-.201 0-.126.132-.227.024-.227-.108 0-.34-.12-.293-.028.047.091-.106-.012-.03.178.077.19-.016.381.03.432.047.05-.03.297-.03.297s.028.092.077-.046c.05-.137.157-.233.103-.116-.053.116-.122.394-.06.346a.434.434 0 00.121-.23c0-.045.155-.224.155-.089s-.146.241-.073.241c.072 0 .113.029.159-.106s.157-.224.202-.135c.046.09.036.085-.025.202s0 .117 0 .117z"/><path fill="#C51918" d="M11.067 3.042l-.068-.115c.122-.076.235-.096.334-.053a.82.82 0 01.167.103l.012.008c.092.064.14.09.17.09v.134c-.068 0-.127-.032-.245-.114l-.012-.008a.818.818 0 00-.143-.09c-.055-.023-.125-.01-.215.045zm-.216.873a.07.07 0 00.07-.07.07.07 0 00-.07-.07.07.07 0 00-.07.07c0 .039.03.07.07.07zm.202.064a.07.07 0 01-.07.07.07.07 0 01-.07-.07.07.07 0 01.07-.07.07.07 0 01.07.07zm.166.064a.07.07 0 00.07-.07.07.07 0 00-.07-.069.07.07 0 00-.07.07c0 .038.031.07.07.07zm.29.042a.07.07 0 01-.07.07.07.07 0 01-.07-.07.07.07 0 01.07-.07.07.07 0 01.07.07z"/></g><path fill="#56C6F5" stroke="#fff" stroke-width=".5" d="M13.431 5.154l-.108.248-.239-.127h0l-.003-.002-.013-.007a5.813 5.813 0 00-.698-.304 8.06 8.06 0 00-.556-.157l-.034-.008-.008-.002h-.002 0l-.26-.058.073-.255.529-1.86.034-.121.119-.045L13.3 2.07l.194-.072.108.177.587.967.067.11-.052.12-.774 1.783z"/><g mask="url(#HRV_svg__HR_-_Croatia_(Hrvatska)"><path fill="#FECA00" fill-rule="evenodd" d="M13.205 3.18l-.09.1a.034.034 0 01-.058-.02l-.014-.132-.13-.027a.034.034 0 01-.013-.06l.108-.078-.041-.127a.034.034 0 01.046-.041l.121.054.089-.099a.034.034 0 01.059.02l.013.132.13.027a.034.034 0 01.013.06l-.107.078.041.127a.034.034 0 01-.046.041l-.121-.054z" clip-rule="evenodd"/><path fill="#E31D1C" d="M11.872 4.055l.133-.518c.588.155 1.2.354 1.65.546l-.205.494a12.27 12.27 0 00-1.578-.522z"/><path fill="#fff" d="M12.052 3.576l.031-.13c.564.14 1.163.363 1.598.571l-.056.121a8.832 8.832 0 00-1.573-.562zm-.167.534l.031-.13a8.11 8.11 0 011.52.538l-.056.121a7.981 7.981 0 00-1.495-.529z"/><path fill="#272727" d="M12.14 3.86l.12-.055c.05.119.114.145.219.094.247-.12.862.048.862.275 0 .088-.051.142-.13.139a.413.413 0 01-.16-.054.82.82 0 00-.13-.063l.043-.128a.852.852 0 01.144.07.341.341 0 00.109.04c.001 0-.008.01-.008-.004 0-.1-.5-.237-.674-.152-.174.084-.316.025-.396-.163z"/></g></g></g></svg>
